X: 17749
T: Hommage à Edmond Parizeau
R: reel
M: 4/4
K: Dmajor
ABcd|:eAA e2 AeA|Ae2A efed|ceAB BAeA|ceAc dedc|B3B BABc|
[1 B2AB efed|c3B ABcA|E3A ABcd:|2 e2d2 c3B|Afed c2B2|A2c2 B2A2||
|:a3b f3a|d3c defd|e2ce afec|A2c2 B2A2B3B BABc|
e2d2 c3B|1 cBAc ecef|e2c2 B2A2:|2 Afed c2B2|A3A ABcd||

